X: 10922
M: 3/4
L: 1/8
K: Bb
(F>G) |\
(de/f/) (ed)(cB) | (Bc/d/) F2G2 | _A3 (cBA) | (_A2G2) (3(FGB) |\
(GF)(ED) (EF/G/) | {G}F4 d>e | (d/e/f) (ed)(ec) | B4 :|
|: d>e |\
(de/f/) (e>d)(c>B) | e2e2d2 | (c>B)(AB)(cd) | e4 (d>e) |\
(de/f/) (ed)(cB) | e2f2 (ga/b/) | (gf)(ed) (ef/g/) | f4 (fg/a/) |
(ba)(gf)(ed) | e3f (ef/g/) | G2(ed)(cB) | (B2A2) (GA/B/) |\
(GF)(ED) (EF/G/) | (G2F2) d>e | (de/f/) (ed)(ec) | B4 :|


